!!!OTL: 885. Schneckhaus, Schneckhaus, stekke deine Hoerner aus.
!!!ODT: 1858
!!!ARE: Europa, Mitteleuropa, Deutschland, Thueringen, Stotternheim
!!!SCT: K0885
!!!TXL: @@GSW
!!!YEM: Copyright 1995, estate of Helmut Schaffrath.
**kern	**text
*clefG2	*
*M2/4	*
*k[f#]	*
*G:	*
=1	=1
{4dd	Schneck-
4b	-haus,
=2	=2
4dd	Schneckhaus,
4b}	.
=3	=3
{8g	ſtek-
8a	-ke
8b	dei-
8cc	-ne
=4	=4
8dd	Hörner
8dd	.
4b}	aus,_und
=5	=5
{8g	wenn
8a	du
8b	ſie
8cc	nicht
=6	=6
8dd	ſtek-
8dd	-ken
4b}	willſt,
=7	=7
{8g	werf
8a	ich
8b	dich
8cc	in
=8	=8
4dd	Gra-
4b}	-ben,
=9	=9
{8g	freſ-
8a	-ſen
8b	dich
8cc	die
=10	=10
4dd	Ra-
4b}	-ben.
=11	=11
{8dd	Kommt
8dd	das
4b	Kalb,
=12	=12
8dd	frißt
8dd	dich
4b}	halb,
=13	=13
{8dd	kommt
8dd	das
4b	Schwein,
=14	=14
8ee	frißt
8dd	dich
8cc	ganʒ
8b	und
=15	=15
4a	gar
4g}	'nein!
==	==
!!!AGN: Kinder -, Tier - Lied
!!!ONB: ESAC (Essen Associative Code) Database: KINDER
!!!AMT: simple duple
!!!AIN: vox
!!!EED: Helmut Schaffrath
!!!EEV: 1.0
!!Wenn die Kinder eine Weg-Schnecke sehen oder herumtragen, rufen sie:
!!Aus Stotternheim bei Erfurt 1858.
!!!GTL: VI. Das Kind im Verkehr mit der Natur. A. Verkehr mit der Thierwelt. (Grussliedchen an die Thiere.)
!!!URL-scan: https://archive.org/details/DeutschesKinderliedUndKinderspiel/page/180/mode/1up
!!!ENC: Anna Maria Matuszewska
!!!EEV: 2024/30/08
*-	*-
